X:1
T:Title
%%score { 1 | 2 }
L:1/8
Q:1/4=110
M:3/4
K:Bb
V:1 treble nm="Grand Piano"
V:2 bass 
V:1
 [DF]4 [B,D][CE] | [DF]2 [DB]2 [Fd]2 | [Gc]2 [GB]2 [EG]2 | [EG]2 [DF]4 | G2 B2 G2 | %5
w: R.~C.~Ward * *|||||
 [DF]2 [DB]2 [Fd]2 | [=Ec]2 [EG]2 [Ec]2 | [Ec]4 z2 | [DF]4 [B,D][CE] | [DF]2 [DB]2 [Fd]2 | %10
w: |||||
 [Gc]2 [GB]2 [EG]2 | [EG]2 [DF]4 | [EG]2 [EB]2 [Ge]2 | [Fd]3 [Fc] [FB]2 | A2 G2 A2 | [DB]4 z2 | %16
w: ||||||
 [Ge]4 [Ge][Ge] | [Ge]2 [GB]2 [^Fc]2 | [Fd]3 [Fd] [Fd]2 | [Fd]2 [DB]2 z2 | c3 c c2 | %21
w: |||||
 [=Ec]2 [EG]2 [EA]2 | [=EB]2 [Ec]2 [Ed]2 | [Ec]4 z2 | [DF]4 [B,D][CE] | [DF]2 [DB]2 [Fd]2 | %26
w: |||||
 [Gc]2 [GB]2 [EG]2 | [EG]2 [DF]4 | [EG]2 [EB]2 [Ge]2 | [Fd]3 [Fc] [FB]2 | A2 G2 A2 | %31
w: |||||
[M:7/4] [DB]4 z2 z2 z2 z4 |] %32
w: |
V:2
 [B,,B,]4 [B,,F,][B,,F,] | [B,,B,]2 [B,,F,]2 [B,,B,]2 | [E,B,]2 [E,E]2 [E,B,]2 | %3
 [B,,B,]2 [B,,B,]4 | [E,B,E]2 [E,G,E]2 [E,B,E]2 | [B,,B,]2 [B,,F,]2 [B,,B,]2 | %6
 [C,G,]2 [C,C]2 [C,B,]2 | [F,A,]4 z2 | [B,,B,]4 [B,,F,][B,,F,] | [B,,B,]2 [B,,F,]2 [B,,B,]2 | %10
 [E,B,]2 [E,E]2 [E,B,]2 | [B,,B,]2 [B,,B,]4 | [E,B,]2 [E,G,]2 [E,B,]2 | [B,,B,]3 [C,A,] [D,B,]2 | %14
 [F,CE]2 [F,CE]2 [F,CE]2 | [B,,B,]4 z2 | [E,B,]4 [E,B,][E,B,] | [E,B,]2 [E,E]2 [E,B,]2 | %18
 [B,,B,]3 [B,,B,] [B,,B,]2 | [B,,B,]2 [B,,B,]2 z2 | [F,A,F]3 [F,A,F] [F,A,F]2 | %21
 [C,G,]2 [C,B,]2 [C,A,]2 | [C,G,]2 [C,A,]2 [C,B,]2 | [F,A,]4 z2 | [B,,B,]4 [B,,F,][B,,F,] | %25
 [B,,B,]2 [B,,F,]2 [B,,B,]2 | [E,B,]2 [E,E]2 [E,B,]2 | [B,,B,]2 [B,,B,]4 | %28
 [E,B,]2 [E,G,]2 [E,B,]2 | [B,,B,]3 [C,A,] [D,B,]2 | [F,CE]2 [F,CE]2 [F,CE]2 | %31
[M:7/4] [B,,B,]4 z2 z2 z2 z4 |] %32

